X: 071323
T: Gander at the Pratie Hole
S: "Ceol Rince na hEireann" 1/30
Z: B.Black
L: 1/8
M: 6/8
R: jig
K: Dmix
A/G/|FAD FAD|GFG EFG|FAD FAD|GED D3|
FAD FAD|GFG EFA|fed e^cA|GED D2 :|
F/G/|Add ded|cAB cAG|Add ded|cAB c2c|
Add ded|cAB cde|fed e^cA|GED D2 :|
